apps/scalable/stock_xfburn-blank-cdrw.svg

<svg xmlns="http://www.w3.org/2000/svg" style="isolation:isolate" width="256" height="256"><defs><filter id="a" width="270.648" height="254.338" x="-7.32" y="2.95" filterUnits="userSpaceOnUse"><feGaussianBlur xmlns="http://www.w3.org/2000/svg" in="SourceGraphic" stdDeviation="4.294"/><feOffset xmlns="http://www.w3.org/2000/svg" dy="4" result="pf_100_offsetBlur"/><feFlood xmlns="http://www.w3.org/2000/svg" flood-opacity=".4"/><feComposite xmlns="http://www.w3.org/2000/svg" in2="pf_100_offsetBlur" operator="in" result="pf_100_dropShadow"/><feBlend xmlns="http://www.w3.org/2000/svg" in="SourceGraphic" in2="pf_100_dropShadow"/></filter></defs><g filter="url(#a)"><linearGradient id="b" x1=".5" x2=".5" y1="-.036" y2="1.036" gradientTransform="matrix(244.648 0 0 228.338 5.676 11.947)" gradientUnits="userSpaceOnUse"><stop offset="0%"/><stop offset="100%" stop-color="#333"/></linearGradient><path fill="url(#b)" d="M165.685 11.947c74.055 0 84.639 10.557 84.639 84.544v59.251c0 73.986-10.584 84.543-84.639 84.543h-75.37c-74.055 0-84.639-10.557-84.639-84.543V96.491c0-73.987 10.584-84.544 84.639-84.544h75.37z"/></g><g opacity=".4"><linearGradient id="c" x1=".517" x2=".517" y2="1"><stop offset="0%" stop-color="#fff"/><stop offset="12.5%" stop-opacity=".098" stop-color="#fff"/><stop offset="92.5%" stop-opacity=".098"/><stop offset="100%" stop-opacity=".498"/></linearGradient><path fill="none" stroke="url(#c)" stroke-linecap="round" stroke-linejoin="round" stroke-width="4.077" d="M165.685 11.947c74.055 0 84.639 10.557 84.639 84.544v59.251c0 73.986-10.584 84.543-84.639 84.543h-75.37c-74.055 0-84.639-10.557-84.639-84.543V96.491c0-73.987 10.584-84.544 84.639-84.544h75.37z" vector-effect="non-scaling-stroke"/></g><path fill="#FFF" d="M5.676 126.116v29.626c0 73.986 10.584 84.543 84.639 84.543h75.37c74.055 0 84.639-10.557 84.639-84.543v-29.626H5.676z" opacity=".1"/><linearGradient id="d" x1=".567" x2=".567" y1="1.071" y2="-.071" gradientTransform="matrix(165 0 0 165 46.167 42.833)" gradientUnits="userSpaceOnUse"><stop offset="0%" stop-color="#a0a0a0"/><stop offset="100%" stop-color="#dfdfdf"/></linearGradient><path fill="url(#d)" d="M211.167 125.333c0-45.729-36.771-82.5-82.5-82.5s-82.5 36.771-82.5 82.5 36.771 82.5 82.5 82.5 82.5-36.771 82.5-82.5zm-52.317 0c0 16.614-13.238 30.183-30.183 30.183-17.278 0-30.183-13.905-30.183-30.183 0-16.61 12.24-30.183 30.183-30.183 17.943 0 30.183 13.903 30.183 30.183z"/><g filter="url(#Tbp4ee8ya2cRiA8RKhaOif6wW3o0NIU0)"><linearGradient id="e" x1=".146" x2=".854" y1=".146" y2=".854" gradientTransform="matrix(2 0 0 2 -1 -1)" gradientUnits="userSpaceOnUse"><stop offset="0%" stop-color="#f15454"/><stop offset="98.261%" stop-color="#ae2424"/></linearGradient><circle fill="url(#e)" r="1" transform="translate(157.5 155.25) scale(43.25)" vector-effect="non-scaling-stroke"/><path fill="#F6F6F6" d="M168.215 155.003l12.408-12.408c1.949-1.95 1.951-5.141 0-7.09l-3.9-3.901c-1.949-1.949-5.141-1.949-7.091.001l-12.408 12.408-12.408-12.408c-1.95-1.95-5.141-1.95-7.091-.001l-3.899 3.901c-1.95 1.949-1.95 5.14 0 7.089l12.408 12.409-12.408 12.408c-1.95 1.951-1.95 5.142 0 7.091l3.899 3.9c1.95 1.952 5.141 1.951 7.091 0l12.408-12.408 12.407 12.408c1.95 1.951 5.143 1.952 7.091 0l3.9-3.9c1.951-1.949 1.95-5.14 0-7.091l-12.407-12.408z"/></g><defs><filter id="Tbp4ee8ya2cRiA8RKhaOif6wW3o0NIU0" width="146.5" height="146.5" x="84.25" y="86" filterUnits="userSpaceOnUse"><feGaussianBlur xmlns="http://www.w3.org/2000/svg" in="SourceGraphic" stdDeviation="4.294"/><feOffset xmlns="http://www.w3.org/2000/svg" dy="4" result="pf_100_offsetBlur"/><feFlood xmlns="http://www.w3.org/2000/svg" flood-opacity=".4"/><feComposite xmlns="http://www.w3.org/2000/svg" in2="pf_100_offsetBlur" operator="in" result="pf_100_dropShadow"/><feBlend xmlns="http://www.w3.org/2000/svg" in="SourceGraphic" in2="pf_100_dropShadow"/></filter></defs></svg>

<svg xmlns="http://www.w3.org/2000/svg" style="isolation:isolate" width="256" height="256" viewBox="0 0 256 256">
 <defs>
  <filter id="DfxeYiwCpZL5v5DfxdIn6YG5KijOkXPt" width="270.648" height="254.338" x="-7.32" y="2.95" filterUnits="userSpaceOnUse">
   <feGaussianBlur xmlns="http://www.w3.org/2000/svg" in="SourceGraphic" stdDeviation="4.294"/>
   <feOffset xmlns="http://www.w3.org/2000/svg" dx="0" dy="4" result="pf_100_offsetBlur"/>
   <feFlood xmlns="http://www.w3.org/2000/svg" flood-opacity=".4"/>
   <feComposite xmlns="http://www.w3.org/2000/svg" in2="pf_100_offsetBlur" operator="in" result="pf_100_dropShadow"/>
   <feBlend xmlns="http://www.w3.org/2000/svg" in="SourceGraphic" in2="pf_100_dropShadow" mode="normal"/>
  </filter>
 </defs>
 <g filter="url(#DfxeYiwCpZL5v5DfxdIn6YG5KijOkXPt)">
  <linearGradient id="_lgradient_29" x1=".5" x2=".5" y1="-.036" y2="1.036" gradientTransform="matrix(244.648,0,0,228.338,5.676,11.947)" gradientUnits="userSpaceOnUse">
   <stop offset="0%" style="stop-color:rgb(0,0,0)"/>
   <stop offset="100%" style="stop-color:rgb(51,51,51)"/>
  </linearGradient>
  <path fill="url(#_lgradient_29)" d="M 165.685 11.947 C 239.74 11.947 250.324 22.504 250.324 96.491 L 250.324 155.742 C 250.324 229.728 239.74 240.285 165.685 240.285 L 90.315 240.285 C 16.26 240.285 5.676 229.728 5.676 155.742 L 5.676 96.491 C 5.676 22.504 16.26 11.947 90.315 11.947 L 165.685 11.947 Z"/>
 </g>
 <g opacity=".4">
  <linearGradient id="_lgradient_30" x1=".517" x2=".517" y1="0" y2="1">
   <stop offset="0%" style="stop-color:rgb(255,255,255)"/>
   <stop offset="12.5%" stop-opacity=".098" style="stop-color:rgb(255,255,255)"/>
   <stop offset="92.5%" stop-opacity=".098" style="stop-color:rgb(0,0,0)"/>
   <stop offset="100%" stop-opacity=".498" style="stop-color:rgb(0,0,0)"/>
  </linearGradient>
  <path fill="none" stroke="url(#_lgradient_30)" stroke-linecap="round" stroke-linejoin="round" stroke-width="4.077" d="M 165.685 11.947 C 239.74 11.947 250.324 22.504 250.324 96.491 L 250.324 155.742 C 250.324 229.728 239.74 240.285 165.685 240.285 L 90.315 240.285 C 16.26 240.285 5.676 229.728 5.676 155.742 L 5.676 96.491 C 5.676 22.504 16.26 11.947 90.315 11.947 L 165.685 11.947 Z" vector-effect="non-scaling-stroke"/>
 </g>
 <g opacity=".1">
  <path fill="#FFFFFF" d="M 5.676 126.116 L 5.676 155.742 C 5.676 229.728 16.26 240.285 90.315 240.285 L 165.685 240.285 C 239.74 240.285 250.324 229.728 250.324 155.742 L 250.324 126.116 L 5.676 126.116 Z"/>
 </g>
 <linearGradient id="_lgradient_31" x1=".567" x2=".567" y1="1.071" y2="-.071" gradientTransform="matrix(165,0,0,165,46.167,42.833)" gradientUnits="userSpaceOnUse">
  <stop offset="0%" style="stop-color:rgb(160,160,160)"/>
  <stop offset="100%" style="stop-color:rgb(223,223,223)"/>
 </linearGradient>
 <path fill="url(#_lgradient_31)" d="M 211.167 125.333 C 211.167 79.604 174.396 42.833 128.667 42.833 C 82.938 42.833 46.167 79.604 46.167 125.333 C 46.167 171.062 82.938 207.833 128.667 207.833 C 174.396 207.833 211.167 171.062 211.167 125.333 Z M 158.85 125.333 C 158.85 141.947 145.612 155.516 128.667 155.516 C 111.389 155.516 98.484 141.611 98.484 125.333 C 98.484 108.723 110.724 95.15 128.667 95.15 C 146.61 95.15 158.85 109.053 158.85 125.333 Z"/>
 <g filter="url(#Tbp4ee8ya2cRiA8RKhaOif6wW3o0NIU0)">
  <linearGradient id="_lgradient_32" x1=".146" x2=".854" y1=".146" y2=".854" gradientTransform="matrix(2,0,0,2,-1,-1)" gradientUnits="userSpaceOnUse">
   <stop offset="0%" style="stop-color:rgb(241,84,84)"/>
   <stop offset="98.261%" style="stop-color:rgb(174,36,36)"/>
  </linearGradient>
  <circle fill="url(#_lgradient_32)" cx="0" cy="0" r="1" transform="matrix(43.25,0,0,43.25,157.5,155.25)" vector-effect="non-scaling-stroke"/>
  <path fill="#F6F6F6" d="M 168.215 155.003 L 180.623 142.595 C 182.572 140.645 182.574 137.454 180.623 135.505 L 176.723 131.604 C 174.774 129.655 171.582 129.655 169.632 131.605 L 157.224 144.013 L 144.816 131.605 C 142.866 129.655 139.675 129.655 137.725 131.604 L 133.826 135.505 C 131.876 137.454 131.876 140.645 133.826 142.594 L 146.234 155.003 L 133.826 167.411 C 131.876 169.362 131.876 172.553 133.826 174.502 L 137.725 178.402 C 139.675 180.354 142.866 180.353 144.816 178.402 L 157.224 165.994 L 169.631 178.402 C 171.581 180.353 174.774 180.354 176.722 178.402 L 180.622 174.502 C 182.573 172.553 182.572 169.362 180.622 167.411 L 168.215 155.003 Z"/>
 </g>
 <defs>
  <filter id="Tbp4ee8ya2cRiA8RKhaOif6wW3o0NIU0" width="146.5" height="146.5" x="84.25" y="86" filterUnits="userSpaceOnUse">
   <feGaussianBlur xmlns="http://www.w3.org/2000/svg" in="SourceGraphic" stdDeviation="4.294"/>
   <feOffset xmlns="http://www.w3.org/2000/svg" dx="0" dy="4" result="pf_100_offsetBlur"/>
   <feFlood xmlns="http://www.w3.org/2000/svg" flood-opacity=".4"/>
   <feComposite xmlns="http://www.w3.org/2000/svg" in2="pf_100_offsetBlur" operator="in" result="pf_100_dropShadow"/>
   <feBlend xmlns="http://www.w3.org/2000/svg" in="SourceGraphic" in2="pf_100_dropShadow" mode="normal"/>
  </filter>
 </defs>
</svg>
